white_pine_national_park/img/cards/mastercard.svg

<svg height="40" viewBox="0 0 48 48" width="40" xmlns="http://www.w3.org/2000/svg"><path d="m45 35c0 2.210938-1.789062 4-4 4h-34c-2.210937 0-4-1.789062-4-4v-22c0-2.210937 1.789063-4 4-4h34c2.210938 0 4 1.789063 4 4z" fill="#3f51b5"/><path d="m40 24c0 5.523438-4.476562 10-10 10-5.523437 0-10-4.476562-10-10 0-5.523437 4.476563-10 10-10 5.523438 0 10 4.476563 10 10z" fill="#ffc107"/><path d="m22.015625 30c-.464844-.617187-.863281-1.285156-1.175781-2h5.324219c.277343-.636719.496093-1.304687.636718-2h-6.597656c-.132812-.644531-.203125-1.3125-.203125-2h7c0-.6875-.070312-1.355469-.199219-2h-6.601562c.144531-.695312.359375-1.363281.640625-2h5.324219c-.3125-.714844-.710938-1.382812-1.175782-2h-2.972656c.433594-.578125.929688-1.121094 1.480469-1.59375-1.75-1.496094-4.015625-2.40625-6.496094-2.40625-5.523437 0-10 4.476563-10 10 0 5.523438 4.476563 10 10 10 3.269531 0 6.160156-1.574219 7.984375-4z" fill="#ff3d00"/></svg>

<svg xmlns="http://www.w3.org/2000/svg" x="0px" y="0px"
     width="40" height="40"
     viewBox="0 0 48 48"
     style="fill:#000000;"><g id="surface1"><path style=" fill:#3F51B5;" d="M 45 35 C 45 37.210938 43.210938 39 41 39 L 7 39 C 4.789063 39 3 37.210938 3 35 L 3 13 C 3 10.789063 4.789063 9 7 9 L 41 9 C 43.210938 9 45 10.789063 45 13 Z "></path><path style=" fill:#FFC107;" d="M 40 24 C 40 29.523438 35.523438 34 30 34 C 24.476563 34 20 29.523438 20 24 C 20 18.476563 24.476563 14 30 14 C 35.523438 14 40 18.476563 40 24 Z "></path><path style=" fill:#FF3D00;" d="M 22.015625 30 C 21.550781 29.382813 21.152344 28.714844 20.839844 28 L 26.164063 28 C 26.441406 27.363281 26.660156 26.695313 26.800781 26 L 20.203125 26 C 20.070313 25.355469 20 24.6875 20 24 L 27 24 C 27 23.3125 26.929688 22.644531 26.800781 22 L 20.199219 22 C 20.34375 21.304688 20.558594 20.636719 20.839844 20 L 26.164063 20 C 25.851563 19.285156 25.453125 18.617188 24.988281 18 L 22.015625 18 C 22.449219 17.421875 22.945313 16.878906 23.496094 16.40625 C 21.746094 14.910156 19.480469 14 17 14 C 11.476563 14 7 18.476563 7 24 C 7 29.523438 11.476563 34 17 34 C 20.269531 34 23.160156 32.425781 24.984375 30 Z "></path></g></svg>
